img/manaSymbols/majp/majp6.svg

<?xml version="1.0" encoding="UTF-8" standalone="no"?>
<!DOCTYPE svg PUBLIC "-//W3C//DTD SVG 1.1//EN" "http://www.w3.org/Graphics/SVG/1.1/DTD/svg11.dtd">
<svg width="714" height="714" viewBox="0 0 714 714" version="1.1" xmlns="http://www.w3.org/2000/svg" xmlns:xlink="http://www.w3.org/1999/xlink" xml:space="preserve" xmlns:serif="http://www.serif.com/" style="fill-rule:evenodd;clip-rule:evenodd;stroke-linejoin:round;stroke-miterlimit:2;">
    <g transform="matrix(1,0,0,1,57,57)">
        <circle cx="300" cy="300" r="300" style="fill:rgb(235,232,219);"/>
    </g>
    <g transform="matrix(1,0,0,1,57,57)">
        <path d="M300,-57C102.966,-57 -57,102.966 -57,300C-57,497.034 102.966,657 300,657C497.034,657 657,497.034 657,300C657,102.966 497.034,-57 300,-57ZM300,0C465.575,0 600,134.425 600,300C600,465.575 465.575,600 300,600C134.425,600 0,465.575 0,300C0,134.425 134.425,0 300,0Z" style="fill:rgb(38,36,30);"/>
    </g>
    <g transform="matrix(1,0,0,1,57,50.5)">
        <path d="M309,492C336,492 375,472 375,382C375,312 349,263 307,263C273,263 242,290 228,318C222,416 259,491 308,491M309,533C218,533 148,450 148,331C148,251 199,71 415,65L415,103C255,109 237,250 237,250C237,250 275,214 331,214C365,214 455,239 455,364C455,482 372,533 310,533" style="fill:rgb(38,36,30);fill-rule:nonzero;"/>
    </g>
</svg>

﻿<?xml version="1.0" encoding="utf-8"?>
<svg width="714" height="714" viewBox="0 0 714 714" version="1.1" xmlns="http://www.w3.org/2000/svg" xml:space="preserve" style="fill-rule: evenodd; clip-rule: evenodd; stroke-linejoin: round; stroke-miterlimit: 2;" preserveAspectRatio="xMidYMid meet" zoomAndPan="magnify" contentScriptType="application/ecmascript" contentStyleType="text/css">
  <circle cx="300" cy="300" r="300" style="fill: rgb(235, 232, 219);" transform="matrix(1,0,0,1,57,57)" />
  <path d="M300-57C102.966-57-57 102.966-57 300s159.966 357 357 357 357-159.966 357-357S497.034-57 300-57zm0 57c165.575 0 300 134.425 300 300S465.575 600 300 600 0 465.575 0 300 134.425 0 300 0z" style="fill: rgb(38, 36, 30);" transform="matrix(1,0,0,1,57,57)" />
  <path d="M309 492c27 0 66-20 66-110 0-70-26-119-68-119-34 0-65 27-79 55-6 98 31 173 80 173m1 42c-91 0-161-83-161-202 0-80 51-260 267-266v38c-160 6-178 147-178 147s38-36 94-36c34 0 124 25 124 150 0 118-83 169-145 169" style="fill: rgb(38, 36, 30); fill-rule: nonzero;" transform="matrix(1,0,0,1,57,50.5)" />
</svg>
